assets/fc/fc-print.svg

<svg xmlns="http://www.w3.org/2000/svg" width="100%" height="100%" viewBox="0 0 48 48"><path fill="#424242" d="M9 11h30v3H9z"/><path fill="#616161" d="M4 25h40v-7c0-2.2-1.8-4-4-4H8c-2.2 0-4 1.8-4 4v7z"/><path fill="#424242" d="M8 36h32c2.2 0 4-1.8 4-4v-8H4v8c0 2.2 1.8 4 4 4z"/><circle cx="40" cy="18" r="1" fill="#00E676"/><path fill="#90CAF9" d="M11 4h26v10H11z"/><path fill="#242424" d="M37.5 31h-27c-.8 0-1.5-.7-1.5-1.5s.7-1.5 1.5-1.5h27c.8 0 1.5.7 1.5 1.5s-.7 1.5-1.5 1.5z"/><path fill="#90CAF9" d="M11 31h26v11H11z"/><path fill="#42A5F5" d="M11 29h26v2H11z"/><g fill="#1976D2"><path d="M16 33h17v2H16zM16 37h13v2H16z"/></g></svg>

<svg xmlns="http://www.w3.org/2000/svg" width="100%" height="100%" viewBox="0 0 48 48"><path fill="#424242" d="M9 11H39V14H9z"/><path fill="#616161" d="M4,25h40v-7c0-2.2-1.8-4-4-4H8c-2.2,0-4,1.8-4,4V25z"/><path fill="#424242" d="M8,36h32c2.2,0,4-1.8,4-4v-8H4v8C4,34.2,5.8,36,8,36z"/><circle cx="40" cy="18" r="1" fill="#00E676"/><path fill="#90CAF9" d="M11 4H37V14H11z"/><path fill="#242424" d="M37.5,31h-27C9.7,31,9,30.3,9,29.5v0c0-0.8,0.7-1.5,1.5-1.5h27c0.8,0,1.5,0.7,1.5,1.5v0 C39,30.3,38.3,31,37.5,31z"/><path fill="#90CAF9" d="M11 31H37V42H11z"/><path fill="#42A5F5" d="M11 29H37V31H11z"/><g fill="#1976D2"><path d="M16 33H33V35H16zM16 37H29V39H16z"/></g></svg>
